X:2
T:Reel des Eboulements
O:Qu\'ebec
R:reel
M:4/4
L:1/8
K:A
eg|"A"aAAA cAec | "Bm"Bcde "E"fefg |"A"aAAA "F#m"cAec | "D"fd"E"ge "A"aefg | 
"A"aAAA cAec | "Bm"Bcde "E"fefg |"D"agfe "Bm"fedc |"E"defg "A"a2 ed || 
"A" cAEA cAec |"E"Bcde f2 ed | "A"cAEA "F#m"cAec | "D"fd"E"ge "A"a2ed | 
"A"cAEA cAec |"Bm"Bcde "E"fefg | "D"agfe "Bm"fedc |"E"defg "A"a2AF||
|:"A"EAAA cABA | "E"GABc d2 cB | "E"GBBB GBBB | GBBB "A"A2 AF |
"A"EAAA cABA | "E"GABc defg | "D"agfe "Bm"fedc |"E"defg "A"a2 :|
